X:1
T:Mist Covered Mountain, The
R:jig
M:6/8
L:1/8
K:Ador
EAA ABd|eAA AGE|~G3 GAB|dBA GED|
EAA ABd|eAA B^cd|efg dBG|1 BAG A2G:|2 BAG A2a|]
age a2b|age edB|AGE G2A|BAB deg|
age a2b|age edB|AGE G2A|BAG A3|
age a2b|age edB|AGE G2A|BAB GED|
EDE G2A|BAG ABd|efg dBG|BAG A2G|]
</abc>
